X: 8942
T: Curragh Races, The
R: reel
M: 4/4
K: Eminor
|:BEGE BEGE|D2FD ADFA|BEGE BEGE|AFDE FEE2|
BEGE BEGE|D2FD ADFA|~G3G~F3F|AFDE FEE2:|
|:G2BG dGBG|G2BG AFDF|G2BG dGBG|AFDE FEE2|
G2BG dGBG|G2BG AFDF|~G3G~F3F|AFDE FEE2:|

